Handbook/Source/Makeup/Images/Bazaar_Logo.svg

<?xml version="1.0" encoding="UTF-8" standalone="no"?>
<!-- Created with Inkscape (http://www.inkscape.org/) -->
<svg
   xmlns:dc="http://purl.org/dc/elements/1.1/"
   xmlns:cc="http://creativecommons.org/ns#"
   xmlns:rdf="http://www.w3.org/1999/02/22-rdf-syntax-ns#"
   xmlns:svg="http://www.w3.org/2000/svg"
   xmlns="http://www.w3.org/2000/svg"
   xmlns:xlink="http://www.w3.org/1999/xlink"
   xmlns:sodipodi="http://sodipodi.sourceforge.net/DTD/sodipodi-0.dtd"
   xmlns:inkscape="http://www.inkscape.org/namespaces/inkscape"
   width="125.3576"
   height="127.96403"
   id="svg2393"
   sodipodi:version="0.32"
   inkscape:version="0.46"
   version="1.0"
   sodipodi:docname="bzr-logo.svg"
   inkscape:output_extension="org.inkscape.output.svg.inkscape">
  <defs
     id="defs2395">
    <linearGradient
       id="linearGradient5444">
      <stop
         id="stop5446"
         offset="0"
         style="stop-color:#729fcf;stop-opacity:1;" />
      <stop
         style="stop-color:#3465a4;stop-opacity:1;"
         offset="0.5"
         id="stop4547" />
      <stop
         id="stop5448"
         offset="1"
         style="stop-color:#204ab7;stop-opacity:1;" />
    </linearGradient>
    <linearGradient
       inkscape:collect="always"
       xlink:href="#linearGradient5444"
       id="linearGradient2200"
       x1="372.24512"
       y1="69.037941"
       x2="372.24512"
       y2="0"
       gradientUnits="userSpaceOnUse"
       gradientTransform="matrix(1.027169,0,0,1,571.72345,145.71693)" />
    <inkscape:perspective
       sodipodi:type="inkscape:persp3d"
       inkscape:vp_x="0 : 526.18109 : 1"
       inkscape:vp_y="0 : 1000 : 0"
       inkscape:vp_z="744.09448 : 526.18109 : 1"
       inkscape:persp3d-origin="372.04724 : 350.78739 : 1"
       id="perspective2401" />
  </defs>
  <sodipodi:namedview
     id="base"
     pagecolor="#ffffff"
     bordercolor="#666666"
     borderopacity="1.0"
     gridtolerance="10000"
     guidetolerance="10"
     objecttolerance="10"
     inkscape:pageopacity="0.0"
     inkscape:pageshadow="2"
     inkscape:zoom="0.35"
     inkscape:cx="375"
     inkscape:cy="520"
     inkscape:document-units="px"
     inkscape:current-layer="layer1"
     showgrid="false"
     inkscape:window-width="642"
     inkscape:window-height="716"
     inkscape:window-x="0"
     inkscape:window-y="26" />
  <metadata
     id="metadata2398">
    <rdf:RDF>
      <cc:Work
         rdf:about="">
        <dc:format>image/svg+xml</dc:format>
        <dc:type
           rdf:resource="http://purl.org/dc/dcmitype/StillImage" />
      </cc:Work>
    </rdf:RDF>
  </metadata>
  <g
     inkscape:label="Layer 1"
     inkscape:groupmode="layer"
     id="layer1"
     transform="translate(-580.17834,-151.23731)">
    <path
       style="opacity:1;fill:url(#linearGradient2200);fill-opacity:1;stroke:none;stroke-width:2;stroke-miterlimit:4;stroke-dasharray:none;stroke-opacity:1;display:inline"
       d="M 588.19225,214.74818 L 703.94225,214.74818 C 703.0194,210.71454 649.52368,155.39489 646.56725,155.46693 C 644.54816,155.51613 591.83132,209.09818 588.19225,214.74818 z"
       id="rect1307"
       inkscape:export-filename="/home/matt/BZR Header.png"
       inkscape:export-xdpi="96"
       inkscape:export-ydpi="96" />
    <g
       style="opacity:1;display:inline"
       id="g3653"
       transform="translate(754.85055,325.08453)"
       inkscape:export-filename="/home/matt/Projects/Ubuntu/Bazaar Website/bzr icon 64.png"
       inkscape:export-xdpi="45.012665"
       inkscape:export-ydpi="45.012665">
      <path
         id="path2749"
         d="M -143.51431,-75.4275 C -158.48768,-90.57687 -171.17625,-103.66019 -171.7111,-104.50153 C -174.63909,-109.10738 -172.34363,-112.16647 -143.7155,-141.81059 C -119.96256,-166.4065 -114.08422,-171.84722 -111.26302,-171.84722 C -108.45655,-171.84722 -102.57922,-166.49332 -79.566158,-142.97326 C -59.704508,-122.67403 -51.314608,-113.24681 -51.314608,-111.22876 C -51.314608,-107.03298 -109.21126,-47.88319 -113.31814,-47.88319 C -115.49463,-47.88319 -123.57621,-55.25503 -143.51431,-75.4275 z"
         style="opacity:1;fill:#fce94f;fill-opacity:1;stroke:#fce94f;stroke-width:4;stroke-miterlimit:4;stroke-dasharray:none;stroke-opacity:1;display:inline" />
      <path
         id="path2721"
         d="M -118.75152,-74.850683 C -119.22012,-75.319283 -119.60352,-85.958443 -119.60352,-98.493313 L -119.60352,-121.28395 L -124.85215,-121.28395 C -131.2088,-121.28395 -131.22918,-121.19503 -121.27316,-136.90004 C -116.77235,-143.99978 -113.38241,-148.09169 -112.19584,-147.85705 C -110.34853,-147.49175 -95.321883,-124.90849 -95.321883,-122.4975 C -95.321883,-121.83004 -97.640303,-121.28395 -100.47393,-121.28395 C -103.84689,-121.28395 -105.87693,-120.6299 -106.35276,-119.38989 C -107.55959,-116.24495 -103.45251,-106.32746 -97.296233,-97.520823 C -90.988133,-88.497013 -90.461803,-86.665103 -93.461883,-84.175253 C -95.128693,-82.791933 -96.185063,-83.268713 -100.25177,-87.239733 C -102.90055,-89.826193 -105.46285,-91.547323 -105.94572,-91.064423 C -106.42862,-90.581523 -106.8237,-86.544203 -106.8237,-82.092573 L -106.8237,-73.998703 L -112.36162,-73.998703 C -115.40746,-73.998703 -118.28294,-74.382103 -118.75152,-74.850683 z"
         style="opacity:1;fill:#c4a000;fill-opacity:1;stroke:#c4a000;display:inline" />
      <path
         id="path2727"
         d="M -120.75152,-76.85072 C -121.22012,-77.31932 -121.60352,-87.95848 -121.60352,-100.49335 L -121.60352,-123.28399 L -126.85215,-123.28399 C -133.2088,-123.28399 -133.22918,-123.19507 -123.27316,-138.90007 C -118.77235,-145.99981 -115.38241,-150.09172 -114.19584,-149.85708 C -112.34853,-149.49178 -97.321888,-126.90852 -97.321888,-124.49754 C -97.321888,-123.83008 -99.640308,-123.28399 -102.47393,-123.28399 C -105.84689,-123.28399 -107.87693,-122.62994 -108.35276,-121.38993 C -109.55959,-118.24499 -105.45251,-108.3275 -99.296238,-99.52086 C -92.988138,-90.49705 -92.461808,-88.66514 -95.461888,-86.17529 C -97.128698,-84.79197 -98.185068,-85.26875 -102.25177,-89.23977 C -104.90055,-91.82623 -107.46285,-93.54736 -107.94572,-93.06446 C -108.42862,-92.58156 -108.8237,-88.54424 -108.8237,-84.09261 L -108.8237,-75.99874 L -114.36162,-75.99874 C -117.40746,-75.99874 -120.28294,-76.38214 -120.75152,-76.85072 z"
         style="opacity:1;fill:#555753;fill-opacity:1;stroke:#2e3436;stroke-opacity:1;display:inline" />
      <path
         d="M -143.51431,-75.4275 C -158.48768,-90.57687 -171.17625,-103.66019 -171.7111,-104.50153 C -174.63909,-109.10738 -172.34363,-112.16647 -143.7155,-141.81059 C -119.96256,-166.4065 -114.08422,-171.84722 -111.26302,-171.84722 C -108.45655,-171.84722 -102.57922,-166.49332 -79.566162,-142.97326 C -59.704512,-122.67403 -51.314612,-113.24681 -51.314612,-111.22876 C -51.314612,-107.03298 -109.21126,-47.88319 -113.31814,-47.88319 C -115.49463,-47.88319 -123.57621,-55.25503 -143.51431,-75.4275 z M -82.734602,-78.80831 C -63.284082,-98.78654 -53.870592,-109.3496 -53.870592,-111.19708 C -53.870592,-114.35673 -108.28764,-170.68595 -111.26979,-170.61328 C -113.31427,-170.56346 -167.39892,-115.6112 -169.81635,-111.12752 C -171.82156,-107.40842 -170.53236,-105.76188 -145.24612,-79.74648 C -117.66227,-51.36719 -115.36413,-49.16116 -113.38369,-49.16116 C -112.40192,-49.16116 -98.609822,-62.50237 -82.734602,-78.80831 z"
         style="opacity:1;fill:#555753;fill-opacity:1;stroke:#2e3436;stroke-width:2;stroke-miterlimit:4;stroke-dasharray:none;stroke-opacity:1;display:inline"
         id="path2736" />
    </g>
  </g>
</svg>

<?xml version="1.0" encoding="UTF-8" standalone="no"?>
<!-- Created with Inkscape (http://www.inkscape.org/) -->

<svg
   xmlns:dc="http://purl.org/dc/elements/1.1/"
   xmlns:cc="http://creativecommons.org/ns#"
   xmlns:rdf="http://www.w3.org/1999/02/22-rdf-syntax-ns#"
   xmlns:svg="http://www.w3.org/2000/svg"
   xmlns="http://www.w3.org/2000/svg"
   xmlns:xlink="http://www.w3.org/1999/xlink"
   xmlns:sodipodi="http://sodipodi.sourceforge.net/DTD/sodipodi-0.dtd"
   xmlns:inkscape="http://www.inkscape.org/namespaces/inkscape"
   width="147.16209"
   height="145.63942"
   id="svg2393"
   sodipodi:version="0.32"
   inkscape:version="0.48.2 r9819"
   version="1.0"
   sodipodi:docname="Bazaar_Logo.svg"
   inkscape:output_extension="org.inkscape.output.svg.inkscape">
  <defs
     id="defs2395">
    <linearGradient
       id="linearGradient5444">
      <stop
         id="stop5446"
         offset="0"
         style="stop-color:#729fcf;stop-opacity:1;" />
      <stop
         style="stop-color:#3465a4;stop-opacity:1;"
         offset="0.5"
         id="stop4547" />
      <stop
         id="stop5448"
         offset="1"
         style="stop-color:#204ab7;stop-opacity:1;" />
    </linearGradient>
    <linearGradient
       inkscape:collect="always"
       xlink:href="#linearGradient5444"
       id="linearGradient2200"
       x1="372.24512"
       y1="69.037941"
       x2="372.24512"
       y2="0"
       gradientUnits="userSpaceOnUse"
       gradientTransform="matrix(1.027169,0,0,1,571.72345,145.71693)" />
    <inkscape:perspective
       sodipodi:type="inkscape:persp3d"
       inkscape:vp_x="0 : 526.18109 : 1"
       inkscape:vp_y="0 : 1000 : 0"
       inkscape:vp_z="744.09448 : 526.18109 : 1"
       inkscape:persp3d-origin="372.04724 : 350.78739 : 1"
       id="perspective2401" />
    <filter
       inkscape:collect="always"
       id="filter3816"
       color-interpolation-filters="sRGB">
      <feGaussianBlur
         inkscape:collect="always"
         stdDeviation="2.628035"
         id="feGaussianBlur3818" />
    </filter>
  </defs>
  <sodipodi:namedview
     id="base"
     pagecolor="#ffffff"
     bordercolor="#666666"
     borderopacity="1.0"
     gridtolerance="10000"
     guidetolerance="10"
     objecttolerance="10"
     inkscape:pageopacity="0.0"
     inkscape:pageshadow="2"
     inkscape:zoom="3.8135717"
     inkscape:cx="150.63521"
     inkscape:cy="69.280761"
     inkscape:document-units="px"
     inkscape:current-layer="layer1"
     showgrid="false"
     inkscape:window-width="1912"
     inkscape:window-height="1127"
     inkscape:window-x="0"
     inkscape:window-y="1"
     fit-margin-top="0"
     fit-margin-left="0"
     fit-margin-right="0"
     fit-margin-bottom="0"
     inkscape:window-maximized="1" />
  <metadata
     id="metadata2398">
    <rdf:RDF>
      <cc:Work
         rdf:about="">
        <dc:format>image/svg+xml</dc:format>
        <dc:type
           rdf:resource="http://purl.org/dc/dcmitype/StillImage" />
      </cc:Work>
    </rdf:RDF>
  </metadata>
  <g
     inkscape:label="Layer 1"
     inkscape:groupmode="layer"
     id="layer1"
     transform="translate(-569.27628,-142.39157)">
    <path
       style="fill:url(#linearGradient2200);fill-opacity:1;stroke:none;display:inline"
       d="m 588.19225,214.74818 115.75,0 c -0.92285,-4.03364 -54.41857,-59.35329 -57.375,-59.28125 -2.01909,0.0492 -54.73593,53.63125 -58.375,59.28125 z"
       id="rect1307"
       inkscape:export-filename="/home/matt/BZR Header.png"
       inkscape:export-xdpi="96"
       inkscape:export-ydpi="96"
       inkscape:connector-curvature="0" />
    <rect
       style="fill:#555753;fill-opacity:1;stroke:#555753;stroke-width:2.39668512;stroke-linecap:round;stroke-linejoin:round;stroke-miterlimit:4;stroke-opacity:1;stroke-dasharray:none;stroke-dashoffset:0;filter:url(#filter3816)"
       id="rect2994"
       width="99.756363"
       height="102.74053"
       x="555.18207"
       y="-350.31754"
       transform="matrix(0.71111921,0.70307145,-0.71111921,0.70307145,0,0)"
       rx="14.259853"
       ry="14.259853" />
    <g
       style="display:inline"
       id="g3653"
       transform="translate(754.85055,325.08453)"
       inkscape:export-filename="/home/matt/Projects/Ubuntu/Bazaar Website/bzr icon 64.png"
       inkscape:export-xdpi="45.012665"
       inkscape:export-ydpi="45.012665">
      <path
         id="path2749"
         d="m -143.51431,-75.4275 c -14.97337,-15.14937 -27.66194,-28.23269 -28.19679,-29.07403 -2.92799,-4.60585 -0.63253,-7.66494 27.9956,-37.30906 23.75294,-24.59591 29.63128,-30.03663 32.45248,-30.03663 2.80647,0 8.6838,5.3539 31.696862,28.87396 19.86165,20.29923 28.25155,29.72645 28.25155,31.7445 0,4.19578 -57.896652,63.34557 -62.003532,63.34557 -2.17649,0 -10.25807,-7.37184 -30.19617,-27.54431 z"
         style="fill:#fce94f;fill-opacity:1;stroke:#fce94f;stroke-width:4;stroke-miterlimit:4;stroke-opacity:1;stroke-dasharray:none;display:inline"
         inkscape:connector-curvature="0" />
      <path
         id="path2721"
         d="m -118.75152,-74.850683 c -0.4686,-0.4686 -0.852,-11.10776 -0.852,-23.64263 l 0,-22.790637 -5.24863,0 c -6.35665,0 -6.37703,0.0889 3.57899,-15.61609 4.50081,-7.09974 7.89075,-11.19165 9.07732,-10.95701 1.84731,0.3653 16.873957,22.94856 16.873957,25.35955 0,0.66746 -2.31842,1.21355 -5.152047,1.21355 -3.37296,0 -5.403,0.65405 -5.87883,1.89406 -1.20683,3.14494 2.90025,13.06243 9.056527,21.869067 6.3081,9.02381 6.83443,10.85572 3.83435,13.34557 -1.66681,1.38332 -2.72318,0.90654 -6.789887,-3.06448 -2.64878,-2.58646 -5.21108,-4.30759 -5.69395,-3.82469 -0.4829,0.4829 -0.87798,4.52022 -0.87798,8.97185 l 0,8.09387 -5.53792,0 c -3.04584,0 -5.92132,-0.3834 -6.3899,-0.85198 z"
         style="fill:#c4a000;fill-opacity:1;stroke:#c4a000;display:inline"
         inkscape:connector-curvature="0" />
      <path
         id="path2727"
         d="m -120.75152,-76.85072 c -0.4686,-0.4686 -0.852,-11.10776 -0.852,-23.64263 l 0,-22.79064 -5.24863,0 c -6.35665,0 -6.37703,0.0889 3.57899,-15.61608 4.50081,-7.09974 7.89075,-11.19165 9.07732,-10.95701 1.84731,0.3653 16.873952,22.94856 16.873952,25.35954 0,0.66746 -2.31842,1.21355 -5.152042,1.21355 -3.37296,0 -5.403,0.65405 -5.87883,1.89406 -1.20683,3.14494 2.90025,13.06243 9.056522,21.86907 6.3081,9.02381 6.83443,10.85572 3.83435,13.34557 -1.66681,1.38332 -2.72318,0.90654 -6.789882,-3.06448 -2.64878,-2.58646 -5.21108,-4.30759 -5.69395,-3.82469 -0.4829,0.4829 -0.87798,4.52022 -0.87798,8.97185 l 0,8.09387 -5.53792,0 c -3.04584,0 -5.92132,-0.3834 -6.3899,-0.85198 z"
         style="fill:#555753;fill-opacity:1;stroke:#2e3436;stroke-opacity:1;display:inline"
         inkscape:connector-curvature="0" />
      <path
         d="m -143.51431,-75.4275 c -14.97337,-15.14937 -27.66194,-28.23269 -28.19679,-29.07403 -2.92799,-4.60585 -0.63253,-7.66494 27.9956,-37.30906 23.75294,-24.59591 29.63128,-30.03663 32.45248,-30.03663 2.80647,0 8.6838,5.3539 31.696858,28.87396 19.86165,20.29923 28.25155,29.72645 28.25155,31.7445 0,4.19578 -57.896648,63.34557 -62.003528,63.34557 -2.17649,0 -10.25807,-7.37184 -30.19617,-27.54431 z m 60.779708,-3.38081 c 19.45052,-19.97823 28.86401,-30.54129 28.86401,-32.38877 0,-3.15965 -54.417048,-59.48887 -57.399198,-59.4162 -2.04448,0.0498 -56.12913,55.00208 -58.54656,59.48576 -2.00521,3.7191 -0.71601,5.36564 24.57023,31.38104 27.58385,28.37929 29.88199,30.58532 31.86243,30.58532 0.98177,0 14.773868,-13.34121 30.649088,-29.64715 z"
         style="fill:#555753;fill-opacity:1;stroke:#2e3436;stroke-width:2;stroke-miterlimit:4;stroke-opacity:1;stroke-dasharray:none;display:inline"
         id="path2736"
         inkscape:connector-curvature="0" />
    </g>
  </g>
</svg>
